raw-svg/trophy.svg

<svg fill="none" height="24" viewBox="0 0 24 24" width="24" xmlns="http://www.w3.org/2000/svg"><path clip-rule="evenodd" d="m7.8016 4.82147c-.04103.03787-.0516.0742-.0516.10161v5.53842c0 1.3997.38622 2.6 1.08337 3.436.68232.8182 1.71453 1.3525 3.16663 1.3525s2.4843-.5343 3.1666-1.3525c.6972-.836 1.0834-2.0363 1.0834-3.436v-5.53842c0-.02741-.0106-.06374-.0516-.10161-.042-.03881-.1103-.07147-.1984-.07147h-8c-.08812 0-.15635.03266-.1984.07147zm-1.5516.10161c0-.97941.84116-1.67308 1.75-1.67308h8c.9088 0 1.75.69367 1.75 1.67308v.32692h1.25c.9665 0 1.75.7835 1.75 1.75v2c0 1.9082-1.5267 3.4212-3.3073 3.7029-.2346.8004-.6063 1.5344-1.1241 2.1553-.8523 1.0221-2.0599 1.6873-3.5686 1.8519v2.5399h2.25c.4142 0 .75.3358.75.75s-.3358.75-.75.75h-6c-.41421 0-.75-.3358-.75-.75s.33579-.75.75-.75h2.25v-2.5399c-1.5087-.1646-2.71629-.8298-3.56865-1.8519-.51775-.6209-.88941-1.3549-1.12404-2.1553-1.78062-.2817-3.30731-1.7947-3.30731-3.7029v-2c0-.9665.7835-1.75 1.75-1.75h1.25zm0 1.82692h-1.25c-.13807 0-.25.11193-.25.25v2c0 .90973.64429 1.7382 1.52176 2.082-.01455-.205-.02176-.412-.02176-.6205zm11.4782 4.332c.8775-.3438 1.5218-1.17227 1.5218-2.082v-2c0-.13807-.1119-.25-.25-.25h-1.25v3.7115c0 .2085-.0072.4155-.0218.6205z" fill="#000" fill-rule="evenodd"/></svg>

<svg width="24" height="24" viewBox="0 0 24 24" fill="none" xmlns="http://www.w3.org/2000/svg">
<path fill-rule="evenodd" clip-rule="evenodd" d="M7.8016 4.82147C7.76057 4.85934 7.75 4.89567 7.75 4.92308V10.4615C7.75 11.8612 8.13622 13.0615 8.83337 13.8975C9.51569 14.7157 10.5479 15.25 12 15.25C13.4521 15.25 14.4843 14.7157 15.1666 13.8975C15.8638 13.0615 16.25 11.8612 16.25 10.4615V4.92308C16.25 4.89567 16.2394 4.85934 16.1984 4.82147C16.1564 4.78266 16.0881 4.75 16 4.75H8C7.91188 4.75 7.84365 4.78266 7.8016 4.82147ZM6.25 4.92308C6.25 3.94367 7.09116 3.25 8 3.25H16C16.9088 3.25 17.75 3.94367 17.75 4.92308V5.25H19C19.9665 5.25 20.75 6.0335 20.75 7V9C20.75 10.9082 19.2233 12.4212 17.4427 12.7029C17.2081 13.5033 16.8364 14.2373 16.3186 14.8582C15.4663 15.8803 14.2587 16.5455 12.75 16.7101V19.25H15C15.4142 19.25 15.75 19.5858 15.75 20C15.75 20.4142 15.4142 20.75 15 20.75H9C8.58579 20.75 8.25 20.4142 8.25 20C8.25 19.5858 8.58579 19.25 9 19.25H11.25V16.7101C9.7413 16.5455 8.53371 15.8803 7.68135 14.8582C7.1636 14.2373 6.79194 13.5033 6.55731 12.7029C4.77669 12.4212 3.25 10.9082 3.25 9V7C3.25 6.0335 4.0335 5.25 5 5.25H6.25V4.92308ZM6.25 6.75H5C4.86193 6.75 4.75 6.86193 4.75 7V9C4.75 9.90973 5.39429 10.7382 6.27176 11.082C6.25721 10.877 6.25 10.67 6.25 10.4615V6.75ZM17.7282 11.082C18.6057 10.7382 19.25 9.90973 19.25 9V7C19.25 6.86193 19.1381 6.75 19 6.75H17.75V10.4615C17.75 10.67 17.7428 10.877 17.7282 11.082Z" fill="black"/>
</svg>
